X: 1452
T: Nedir Murâd-ı Dil-i
C: Sadullah Ağa
O: Turkey
F: http://compmusic.upf.edu/node/140
N: sedaraban--agirsemai--aksaksemai--nedir_murad-i--sadullah_aga
N: makam= sedaraban
N: form= agirsemai
N: usul= aksaksemai = 10/8
M: 10/8
L: 1/16
K: C _7/8B _7/8e ^f ^c
Q: 1/4=120
%%MIDI tuningsystem comma53
d4 d2d4fe2ded cdc2  | d4 e2g3fe2 f2g4fa  | \
w:  Ah  ne dir  mu *  *  râd_  |  ı  dil_ i  *  *  *  kûy_  | 
g4 d2g2 fga2 _b2ag fedc  | 
w:  *  i  yâ *  *  *  rı  biz   | 
d4 e2f2 {g}fed2 a2g2 {a}f2{g}e2  | \
w:  bi li riz  *  *  *  *  a man    | 
{f}d4 d2d4fe2ded cdc2  | 
w:  *  *  Ye  lel  li  *  *  yâr   | 
d4 e2f3gfe {f}edd4z2  | =c2d4_ed cdc2 e2dc _BAG2  | 
w:  yel  le  le  le  lel  *  *  lel  *  lel   |  lel  *  li  *  *  *  *  *  kûy_  | 
AGFG A2A3G=c2 c2c_B AGFE  | D4 E2F3DFE {F}EDD4z2  | 
w:  i  *  *  *  yâr  *  *  *  ı  biz   |  bi li riz  *  *  *  *  *  *  vay    | 
d4 d2d4fe2ded cdc2  | d4 e2g3fe2 f2g4fa  | \
w:  Ah  ne dir  mu *  *  râd_  |  ı  dil_ i  *  *  *  kûy_  | 
g4 d2g2 fga2 _b2ag fedc  | 
w:  *  i  yâ *  *  *  rı  biz   | 
d4 e2f2 {g}fed2 a2g2 {a}f2{g}e2  | \
w:  bi li riz  *  *  *  *  a man    | 
{f}d4 d2d4fe2ded cdc2  | 
w:  *  *  Ye  lel  li  *  *  yâr   | 
d4 e2f3gfe {f}edd4z2  | =c2d4_ed cdc2 e2dc _BAG2  | 
w:  yel  le  le  le  lel  *  *  lel  *  lel   |  lel  *  li  *  *  *  *  *  kûy_  | 
AGFG A2A3G=c2 c2c_B AGFE  | D4 E2F3DFE {F}EDD4z2  | 
w:  i  *  *  *  yâr  *  *  *  ı  biz   |  bi li riz  *  *  *  *  *  *  vay    | 
g4 d2g3a_ba gfg6  | g4 _b2a2 g2fg abag fed2  | 
w:  Ah  hep_ öy *  le  *  *  *  dil  |  de  o lur  *  *  *  *  *  tîr_  | 
agfg a2a3g=c'2 _baag f4  | dfe2 d2ed cde2 a2g2 {a}f2{g}e2  | 
w:  i  *  *  *  nâz_ *  *  *  ı  *  mür  |  de  *  *  i  hûn  *  *  *  *  a man    | 
{f}d4 d2d4fe2ded cdc2  | d4 e2g3fe2 f2g4fa  | \
w:  *  Ah  vi sâl  i *  *  çin   |  do la nır  *  *  *  rû  | 
g4 d2g2 fga2 _b2ag fedc  | 
w:  *  zi gâ *  *  *  rı  biz   | 
d4 e2f2 {g}fed2 a2g2 {a}f2{g}e2  | \
w:  bi li riz  *  *  *  *  a man    | 
{f}d4 d2d4fe2ded cdc2  | 
w:  *  *  Ye  lel  li  *  *  yâr   | 
d4 e2f3gfe {f}edd4z2  | =c2d4_ed cdc2 e2dc _BAG2  | 
w:  yel  le  le  le  lel  *  *  lel  *  lel   |  lel  *  li  *  *  *  *  *  kûy_  | 
AGFG A2A3G=c2 c2c_B AGFE  | D4 E2F3DFE {F}EDD4z2  | 
w:  i  *  *  *  yâr  *  *  *  ı  biz   |  bi li riz  *  *  *  *  *  *  vay    | 
|


